packages/icons/svg/Fill/pricetag.svg

<svg width="24" height="24" viewBox="0 0 24 24" fill="none" xmlns="http://www.w3.org/2000/svg">
<g id="Icon/Fill/pricetag">
<path id="Mask" fill-rule="evenodd" clip-rule="evenodd" d="M11.5604 11.5605C10.9744 12.1465 10.0254 12.1465 9.43944 11.5605C8.85344 10.9745 8.85344 10.0245 9.43944 9.43948C10.0254 8.85348 10.9744 8.85348 11.5604 9.43948C12.1464 10.0245 12.1464 10.9745 11.5604 11.5605ZM21.4674 11.5815L15.0504 5.16448C14.8854 4.99948 14.6684 4.89748 14.4364 4.87648L5.09244 4.00448C4.79544 3.97448 4.50344 4.08148 4.29244 4.29248C4.08144 4.50348 3.97644 4.79648 4.00344 5.09248L4.87544 14.4365C4.89844 14.6685 4.99944 14.8865 5.16444 15.0505L11.5814 21.4685C11.9364 21.8215 12.4014 21.9985 12.8664 21.9985C13.3314 21.9985 13.7964 21.8215 14.1514 21.4675L21.4674 14.1515C21.8104 13.8095 21.9994 13.3525 21.9994 12.8665C21.9994 12.3805 21.8104 11.9245 21.4674 11.5815Z" fill="#000000"/>
</g>
</svg>

<svg fill="none" height="24" viewBox="0 0 24 24" width="24" xmlns="http://www.w3.org/2000/svg"><path clip-rule="evenodd" d="m11.5605 11.5605c-.586.586-1.535.586-2.121 0s-.586-1.536 0-2.12095c.586-.586 1.535-.586 2.121 0 .586.58495.586 1.53495 0 2.12095zm9.907.021-6.417-6.41702c-.165-.165-.382-.267-.614-.288l-9.34399-.872c-.297-.03-.589.077-.8.288s-.316.504-.289.8l.872 9.34402c.023.232.124.45.289.614l6.41699 6.418c.355.353.82.53 1.285.53s.93-.177 1.285-.531l7.316-7.316c.343-.342.532-.799.532-1.285s-.189-.942-.532-1.285z" fill="#6b7280" fill-rule="evenodd"/></svg>
